src/frontend/src/assets/icon_pledge.svg

<svg width="24" height="24" viewBox="0 0 24 24" fill="none" xmlns="http://www.w3.org/2000/svg">
<g id="&#231;&#189;&#145;&#231;&#187;&#156;">
<path id="Vector" d="M7.00033 16.1667H3.66699V19.5001H7.00033V16.1667Z" stroke="#A6B6D1" stroke-width="0.833333" stroke-linecap="round" stroke-linejoin="round"/>
<path id="Vector_2" d="M18.6663 4.5H5.33301V9.5H18.6663V4.5Z" stroke="#A6B6D1" stroke-width="0.833333" stroke-linecap="round" stroke-linejoin="round"/>
<path id="Vector_3" d="M12 16.1667V9.5" stroke="#A6B6D1" stroke-width="0.833333" stroke-linecap="round" stroke-linejoin="round"/>
<path id="Vector_4" d="M5.33301 16.1666V12.8333H18.6663V16.1666" stroke="#A6B6D1" stroke-width="0.833333" stroke-linecap="round" stroke-linejoin="round"/>
<path id="Vector_5" d="M20.3333 16.1667H17V19.5001H20.3333V16.1667Z" stroke="#A6B6D1" stroke-width="0.833333" stroke-linecap="round" stroke-linejoin="round"/>
<path id="Vector_6" d="M13.6663 16.1667H10.333V19.5001H13.6663V16.1667Z" stroke="#A6B6D1" stroke-width="0.833333" stroke-linecap="round" stroke-linejoin="round"/>
<path id="Vector_7" d="M7.83301 7H8.66634" stroke="#A6B6D1" stroke-width="0.833333" stroke-linecap="round" stroke-linejoin="round"/>
</g>
</svg>

<svg width="24" height="24" viewBox="0 0 24 24" fill="none" xmlns="http://www.w3.org/2000/svg"><g stroke="#A6B6D1" stroke-width=".833" stroke-linecap="round" stroke-linejoin="round"><path d="M7 16.167H3.667V19.5H7v-3.333zM18.666 4.5H5.333v5h13.333v-5zM12 16.167V9.5"/><path d="M5.333 16.167v-3.334h13.333v3.334m1.667 0H17V19.5h3.333v-3.333zm-6.667 0h-3.333V19.5h3.333v-3.333zM7.833 7h.833"/></g></svg>
